X:532211 F:http://www.vwml.org/record/HAM/5/32/21%%VWML:HAM-5-32-21-0 T:Lowlands of Holland
S:Mrs Marina Russell, Upwey coll. HED Hammond
O:England
A:Dorset
N:Transcribed from HAM-05-056.gif
F:HAM-05-32-21.abc Z:EFDSS;PJHeadford %%stretchlast 0 M:3/4
L:1/8
Q:3/4=40
K:A
A> B|A> GE2d2|c> Bc2A2|A> BD2E2|A4 A> B| A> GE2d2|c2B2 A2|A> AD2E2|A4c d|e ee2 dc|
d dd2 cd|e eG2A2|(B2d2) c B|A AE2d2|c> Bc2A2| A> AD2E2|A4||
% downloaded from http://folkopedia.efdss.org/HAM-05-32-22.abc
